material/.icons/material/slot-machine-outline.svg

<svg xmlns="http://www.w3.org/2000/svg" viewBox="0 0 24 24"><path d="M5 12l2-4V7H4v1h2l-2 4m5 0l2-4V7H8v1h2l-2 4m5 0l2-4V7h-3v1h2l-2 4m9-10c-1.1 0-2 .9-2 2 0 .7.4 1.4 1 1.7V17h-3v-2c.6 0 1-.4 1-1V5c0-.6-.4-1-1-1h-3.8c-.8-1.2-2.2-2-3.7-2s-2.9.8-3.7 2H2c-.6 0-1 .4-1 1v9c0 .6.4 1 1 1v7h15v-3h3c1.1 0 2-.9 2-2V5.7c.6-.3 1-1 1-1.7 0-1.1-.9-2-2-2M3 6h13v7H3V6m12 14H4v-5h11v5m-2-1H6v-2h7v2z"/></svg>

<?xml version="1.0" encoding="UTF-8"?><!DOCTYPE svg PUBLIC "-//W3C//DTD SVG 1.1//EN" "http://www.w3.org/Graphics/SVG/1.1/DTD/svg11.dtd"><svg xmlns="http://www.w3.org/2000/svg" xmlns:xlink="http://www.w3.org/1999/xlink" version="1.1" id="mdi-slot-machine-outline" width="24" height="24" viewBox="0 0 24 24"><path d="M5 12L7 8V7H4V8H6L4 12M9 12L11 8V7H8V8H10L8 12M13 12L15 8V7H12V8H14L12 12M21 2C19.9 2 19 2.9 19 4C19 4.7 19.4 5.4 20 5.7V17H17V15C17.6 15 18 14.6 18 14V5C18 4.4 17.6 4 17 4H13.2C12.4 2.8 11 2 9.5 2S6.6 2.8 5.8 4H2C1.4 4 1 4.4 1 5V14C1 14.6 1.4 15 2 15V22H17V19H20C21.1 19 22 18.1 22 17V5.7C22.6 5.4 23 4.7 23 4C23 2.9 22.1 2 21 2M3 6H16V13H3V6M15 20H4V15H15V20M13 19H6V17H13V19Z" /></svg>
